svg/color/imi.svg

<?xml version="1.0" encoding="UTF-8" ?>
<!DOCTYPE svg PUBLIC "-//W3C//DTD SVG 1.1//EN" "http://www.w3.org/Graphics/SVG/1.1/DTD/svg11.dtd">
<svg width="250pt" height="243pt" viewBox="0 0 250 243" version="1.1" xmlns="http://www.w3.org/2000/svg">
<g id="#ffffffff">
<path fill="#ffffff" opacity="1.00" d=" M 0.00 0.00 L 250.00 0.00 L 250.00 243.00 L 0.00 243.00 L 0.00 0.00 M 109.46 11.71 C 82.61 14.73 57.11 27.98 39.20 48.21 C 23.26 66.02 13.32 89.08 11.40 112.91 C 9.49 134.91 14.24 157.53 25.10 176.78 C 39.14 202.12 63.48 221.61 91.39 229.45 C 110.91 235.19 132.04 235.36 151.63 229.87 C 176.26 223.33 198.27 207.75 212.99 186.99 C 227.14 167.08 234.60 142.43 233.53 118.01 C 232.69 95.14 224.43 72.63 210.52 54.48 C 196.75 36.63 177.55 22.99 156.02 16.20 C 141.03 11.53 125.07 9.88 109.46 11.71 Z" />
<path fill="#ffffff" opacity="1.00" d=" M 114.39 33.39 C 134.30 31.22 154.88 36.31 171.61 47.34 C 191.08 59.89 205.06 80.49 209.82 103.14 C 212.07 112.50 211.80 122.22 211.41 131.77 C 208.95 151.81 199.69 171.07 185.05 185.06 C 171.65 198.37 153.80 207.19 135.03 209.52 C 118.84 211.98 102.05 209.27 87.07 202.79 C 67.29 193.91 50.89 177.63 42.16 157.75 C 36.48 145.35 34.19 131.58 34.55 118.00 C 35.13 98.94 42.40 80.21 54.51 65.50 C 69.15 47.43 91.20 35.44 114.39 33.39 M 55.63 76.47 C 69.52 76.60 83.40 76.56 97.29 76.50 C 104.15 64.45 111.25 52.53 118.00 40.41 C 93.14 41.74 69.03 55.43 55.63 76.47 M 128.14 40.46 C 134.76 52.64 141.88 64.56 148.85 76.56 C 162.82 76.45 176.80 76.69 190.78 76.43 C 177.12 55.50 153.14 41.52 128.14 40.46 M 106.38 76.46 C 117.46 76.60 128.55 76.59 139.63 76.46 C 134.25 66.74 128.69 57.10 122.98 47.56 C 117.38 57.16 111.73 66.73 106.38 76.46 M 58.00 84.41 C 63.84 94.33 69.14 104.61 75.49 114.21 C 81.16 104.27 87.19 94.53 92.48 84.38 C 80.98 84.31 69.49 84.24 58.00 84.41 M 101.59 84.35 C 94.82 96.57 87.65 108.56 80.73 120.70 C 79.79 122.03 80.45 123.60 81.22 124.82 C 87.70 136.07 94.23 147.28 100.64 158.57 C 101.74 158.61 102.85 158.66 103.95 158.70 C 104.18 156.82 104.27 154.93 104.27 153.03 C 104.21 135.86 104.30 118.69 104.22 101.52 C 108.26 101.44 112.30 101.45 116.34 101.52 C 116.35 120.57 116.35 139.62 116.34 158.67 C 120.78 158.67 125.23 158.65 129.68 158.69 C 129.66 155.96 129.65 153.22 130.02 150.50 C 133.91 150.55 137.81 150.31 141.70 150.58 C 143.25 152.74 142.02 156.11 142.40 158.75 C 143.00 158.71 144.20 158.62 144.81 158.58 C 151.03 148.12 156.95 137.49 163.11 126.99 C 164.06 124.84 166.75 122.49 164.98 120.09 C 158.12 108.26 151.32 96.38 144.43 84.57 C 143.93 84.46 142.94 84.25 142.44 84.14 C 142.28 103.25 142.44 122.37 142.37 141.49 C 138.34 141.58 134.30 141.55 130.27 141.55 C 130.18 122.52 130.21 103.49 130.25 84.47 C 125.61 84.24 120.97 84.35 116.33 84.33 C 116.37 87.30 116.33 90.27 116.33 93.25 C 112.31 93.27 108.29 93.26 104.27 93.26 C 104.26 90.31 104.22 87.36 104.26 84.41 C 103.37 84.39 102.48 84.37 101.59 84.35 M 153.20 84.39 C 159.05 94.04 164.48 103.95 170.24 113.66 C 171.83 111.72 173.20 109.61 174.40 107.40 C 178.69 99.69 183.37 92.19 187.47 84.37 C 176.04 84.29 164.62 84.26 153.20 84.39 M 175.05 121.98 C 181.99 134.05 188.87 146.16 195.98 158.13 C 207.51 135.79 207.29 107.97 196.04 85.57 C 188.86 97.60 181.86 109.74 175.05 121.98 M 50.14 157.85 C 52.98 153.67 55.34 149.19 57.88 144.82 C 62.03 137.19 67.01 129.94 70.62 122.08 C 63.83 110.09 57.02 98.10 49.93 86.28 C 38.54 108.40 39.36 135.65 50.14 157.85 M 170.35 130.02 C 164.75 139.48 159.30 149.03 153.88 158.59 C 164.96 158.72 176.04 158.72 187.12 158.59 C 181.58 149.04 176.42 139.24 170.35 130.02 M 58.97 158.57 C 69.92 158.74 80.88 158.72 91.83 158.58 C 86.15 149.24 81.11 139.52 75.21 130.32 C 69.76 139.72 64.32 149.12 58.97 158.57 M 105.62 166.51 C 110.88 176.89 117.03 186.79 122.88 196.84 C 128.53 186.69 134.60 176.77 140.13 166.56 C 128.63 166.41 117.13 166.49 105.62 166.51 M 55.34 166.57 C 62.67 178.35 73.56 187.64 85.77 194.08 C 95.50 198.89 106.15 202.58 117.10 202.72 C 110.29 190.56 103.23 178.53 96.26 166.46 C 82.62 166.57 68.98 166.35 55.34 166.57 M 128.37 202.76 C 132.85 202.71 137.34 202.30 141.65 201.03 C 161.64 196.35 179.86 183.92 190.99 166.61 C 177.04 166.37 163.07 166.46 149.12 166.56 C 142.36 178.72 135.25 190.67 128.37 202.76 Z" />
</g>
<g id="#000000ff">
<path fill="#000000" opacity="1.00" d=" M 109.46 11.71 C 125.07 9.88 141.03 11.53 156.02 16.20 C 177.55 22.99 196.75 36.63 210.52 54.48 C 224.43 72.63 232.69 95.14 233.53 118.01 C 234.60 142.43 227.14 167.08 212.99 186.99 C 198.27 207.75 176.26 223.33 151.63 229.87 C 132.04 235.36 110.91 235.19 91.39 229.45 C 63.48 221.61 39.14 202.12 25.10 176.78 C 14.24 157.53 9.49 134.91 11.40 112.91 C 13.32 89.08 23.26 66.02 39.20 48.21 C 57.11 27.98 82.61 14.73 109.46 11.71 M 114.39 33.39 C 91.20 35.44 69.15 47.43 54.51 65.50 C 42.40 80.21 35.13 98.94 34.55 118.00 C 34.19 131.58 36.48 145.35 42.16 157.75 C 50.89 177.63 67.29 193.91 87.07 202.79 C 102.05 209.27 118.84 211.98 135.03 209.52 C 153.80 207.19 171.65 198.37 185.05 185.06 C 199.69 171.07 208.95 151.81 211.41 131.77 C 211.80 122.22 212.07 112.50 209.82 103.14 C 205.06 80.49 191.08 59.89 171.61 47.34 C 154.88 36.31 134.30 31.22 114.39 33.39 Z" />
<path fill="#000000" opacity="1.00" d=" M 55.63 76.47 C 69.03 55.43 93.14 41.74 118.00 40.41 C 111.25 52.53 104.15 64.45 97.29 76.50 C 83.40 76.56 69.52 76.60 55.63 76.47 Z" />
<path fill="#000000" opacity="1.00" d=" M 128.14 40.46 C 153.14 41.52 177.12 55.50 190.78 76.43 C 176.80 76.69 162.82 76.45 148.85 76.56 C 141.88 64.56 134.76 52.64 128.14 40.46 Z" />
<path fill="#000000" opacity="1.00" d=" M 106.38 76.46 C 111.73 66.73 117.38 57.16 122.98 47.56 C 128.69 57.10 134.25 66.74 139.63 76.46 C 128.55 76.59 117.46 76.60 106.38 76.46 Z" />
<path fill="#000000" opacity="1.00" d=" M 58.00 84.41 C 69.49 84.24 80.98 84.31 92.48 84.38 C 87.19 94.53 81.16 104.27 75.49 114.21 C 69.14 104.61 63.84 94.33 58.00 84.41 Z" />
<path fill="#000000" opacity="1.00" d=" M 101.59 84.35 C 102.48 84.37 103.37 84.39 104.26 84.41 C 104.22 87.36 104.26 90.31 104.27 93.26 C 108.29 93.26 112.31 93.27 116.33 93.25 C 116.33 90.27 116.37 87.30 116.33 84.33 C 120.97 84.35 125.61 84.24 130.25 84.47 C 130.21 103.49 130.18 122.52 130.27 141.55 C 134.30 141.55 138.34 141.58 142.37 141.49 C 142.44 122.37 142.28 103.25 142.44 84.14 C 142.94 84.25 143.93 84.46 144.43 84.57 C 151.32 96.38 158.12 108.26 164.98 120.09 C 166.75 122.49 164.06 124.84 163.11 126.99 C 156.95 137.49 151.03 148.12 144.81 158.58 C 144.20 158.62 143.00 158.71 142.40 158.75 C 142.02 156.11 143.25 152.74 141.70 150.58 C 137.81 150.31 133.91 150.55 130.02 150.50 C 129.65 153.22 129.66 155.96 129.68 158.69 C 125.23 158.65 120.78 158.67 116.34 158.67 C 116.35 139.62 116.35 120.57 116.34 101.52 C 112.30 101.45 108.26 101.44 104.22 101.52 C 104.30 118.69 104.21 135.86 104.27 153.03 C 104.27 154.93 104.18 156.82 103.95 158.70 C 102.85 158.66 101.74 158.61 100.64 158.57 C 94.23 147.28 87.70 136.07 81.22 124.82 C 80.45 123.60 79.79 122.03 80.73 120.70 C 87.65 108.56 94.82 96.57 101.59 84.35 Z" />
<path fill="#000000" opacity="1.00" d=" M 153.20 84.39 C 164.62 84.26 176.04 84.29 187.47 84.37 C 183.37 92.19 178.69 99.69 174.40 107.40 C 173.20 109.61 171.83 111.72 170.24 113.66 C 164.48 103.95 159.05 94.04 153.20 84.39 Z" />
<path fill="#000000" opacity="1.00" d=" M 175.05 121.98 C 181.86 109.74 188.86 97.60 196.04 85.57 C 207.29 107.97 207.51 135.79 195.98 158.13 C 188.87 146.16 181.99 134.05 175.05 121.98 Z" />
<path fill="#000000" opacity="1.00" d=" M 50.14 157.85 C 39.36 135.65 38.54 108.40 49.93 86.28 C 57.02 98.10 63.83 110.09 70.62 122.08 C 67.01 129.94 62.03 137.19 57.88 144.82 C 55.34 149.19 52.98 153.67 50.14 157.85 Z" />
<path fill="#000000" opacity="1.00" d=" M 170.35 130.02 C 176.42 139.24 181.58 149.04 187.12 158.59 C 176.04 158.72 164.96 158.72 153.88 158.59 C 159.30 149.03 164.75 139.48 170.35 130.02 Z" />
<path fill="#000000" opacity="1.00" d=" M 58.97 158.57 C 64.32 149.12 69.76 139.72 75.21 130.32 C 81.11 139.52 86.15 149.24 91.83 158.58 C 80.88 158.72 69.92 158.74 58.97 158.57 Z" />
<path fill="#000000" opacity="1.00" d=" M 105.62 166.51 C 117.13 166.49 128.63 166.41 140.13 166.56 C 134.60 176.77 128.53 186.69 122.88 196.84 C 117.03 186.79 110.88 176.89 105.62 166.51 Z" />
<path fill="#000000" opacity="1.00" d=" M 55.34 166.57 C 68.98 166.35 82.62 166.57 96.26 166.46 C 103.23 178.53 110.29 190.56 117.10 202.72 C 106.15 202.58 95.50 198.89 85.77 194.08 C 73.56 187.64 62.67 178.35 55.34 166.57 Z" />
<path fill="#000000" opacity="1.00" d=" M 128.37 202.76 C 135.25 190.67 142.36 178.72 149.12 166.56 C 163.07 166.46 177.04 166.37 190.99 166.61 C 179.86 183.92 161.64 196.35 141.65 201.03 C 137.34 202.30 132.85 202.71 128.37 202.76 Z" />
</g>
</svg>

<?xml version="1.0" encoding="utf-8"?>
<!-- Generator: Adobe Illustrator 26.0.3, SVG Export Plug-In . SVG Version: 6.00 Build 0)  -->
<svg version="1.1" id="Layer_1" xmlns="http://www.w3.org/2000/svg" xmlns:xlink="http://www.w3.org/1999/xlink" x="0px" y="0px"
	 viewBox="0 0 250 243" style="enable-background:new 0 0 250 243;" xml:space="preserve">
<style type="text/css">
	.st0{fill:#FFFFFF;}
</style>
<g id="_x23_ffffffff">
	<path class="st0" d="M114.4,33.4c19.9-2.2,40.5,2.9,57.2,14c19.5,12.5,33.4,33.1,38.2,55.8c2.2,9.4,2,19.1,1.6,28.6
		c-2.5,20-11.7,39.3-26.4,53.3c-13.4,13.3-31.2,22.1-50,24.5c-16.2,2.5-33-0.2-48-6.7c-19.8-8.9-36.2-25.2-44.9-45
		c-5.7-12.4-8-26.2-7.6-39.8c0.6-19.1,7.9-37.8,20-52.5C69.2,47.4,91.2,35.4,114.4,33.4 M55.6,76.5c13.9,0.1,27.8,0.1,41.7,0
		c6.9-12.1,14-24,20.7-36.1C93.1,41.7,69,55.4,55.6,76.5 M128.1,40.5c6.6,12.2,13.7,24.1,20.7,36.1c14-0.1,27.9,0.1,41.9-0.1
		C177.1,55.5,153.1,41.5,128.1,40.5 M106.4,76.5c11.1,0.1,22.2,0.1,33.3,0c-5.4-9.7-10.9-19.4-16.7-28.9
		C117.4,57.2,111.7,66.7,106.4,76.5 M58,84.4c5.8,9.9,11.1,20.2,17.5,29.8c5.7-9.9,11.7-19.7,17-29.8C81,84.3,69.5,84.2,58,84.4
		 M101.6,84.3c-6.8,12.2-13.9,24.2-20.9,36.3c-0.9,1.3-0.3,2.9,0.5,4.1c6.5,11.3,13,22.5,19.4,33.8c1.1,0,2.2,0.1,3.3,0.1
		c0.2-1.9,0.3-3.8,0.3-5.7c-0.1-17.2,0-34.3,0-51.5c4-0.1,8.1-0.1,12.1,0c0,19.1,0,38.1,0,57.2c4.4,0,8.9,0,13.3,0
		c0-2.7,0-5.5,0.3-8.2c3.9,0.1,7.8-0.2,11.7,0.1c1.6,2.2,0.3,5.5,0.7,8.2c0.6,0,1.8-0.1,2.4-0.2c6.2-10.5,12.1-21.1,18.3-31.6
		c0.9-2.2,3.6-4.5,1.9-6.9c-6.9-11.8-13.7-23.7-20.6-35.5c-0.5-0.1-1.5-0.3-2-0.4c-0.2,19.1,0,38.2-0.1,57.4
		c-4,0.1-8.1,0.1-12.1,0.1c-0.1-19-0.1-38.1,0-57.1c-4.6-0.2-9.3-0.1-13.9-0.1c0,3,0,5.9,0,8.9c-4,0-8,0-12.1,0c0-3,0-5.9,0-8.8
		C103.4,84.4,102.5,84.4,101.6,84.3 M153.2,84.4c5.9,9.7,11.3,19.6,17,29.3c1.6-1.9,3-4.1,4.2-6.3c4.3-7.7,9-15.2,13.1-23
		C176,84.3,164.6,84.3,153.2,84.4 M175.1,122c6.9,12.1,13.8,24.2,20.9,36.2c11.5-22.3,11.3-50.2,0.1-72.6
		C188.9,97.6,181.9,109.7,175.1,122 M50.1,157.9c2.8-4.2,5.2-8.7,7.7-13c4.1-7.6,9.1-14.9,12.7-22.7c-6.8-12-13.6-24-20.7-35.8
		C38.5,108.4,39.4,135.6,50.1,157.9 M170.4,130c-5.6,9.5-11.1,19-16.5,28.6c11.1,0.1,22.2,0.1,33.2,0
		C181.6,149,176.4,139.2,170.4,130 M59,158.6c10.9,0.2,21.9,0.1,32.9,0c-5.7-9.3-10.7-19.1-16.6-28.3
		C69.8,139.7,64.3,149.1,59,158.6 M105.6,166.5c5.3,10.4,11.4,20.3,17.3,30.3c5.7-10.1,11.7-20.1,17.3-30.3
		C128.6,166.4,117.1,166.5,105.6,166.5 M55.3,166.6c7.3,11.8,18.2,21.1,30.4,27.5c9.7,4.8,20.4,8.5,31.3,8.6
		c-6.8-12.2-13.9-24.2-20.8-36.3C82.6,166.6,69,166.4,55.3,166.6 M128.4,202.8c4.5,0,9-0.5,13.3-1.7c20-4.7,38.2-17.1,49.3-34.4
		c-14-0.2-27.9-0.1-41.9-0.1C142.4,178.7,135.2,190.7,128.4,202.8z"/>
</g>
<g id="_x23_000000ff">
	<path d="M109.5,11.7c15.6-1.8,31.6-0.2,46.6,4.5c21.5,6.8,40.7,20.4,54.5,38.3c13.9,18.1,22.2,40.7,23,63.5
		c1.1,24.4-6.4,49.1-20.5,69c-14.7,20.8-36.7,36.3-61.4,42.9c-19.6,5.5-40.7,5.3-60.2-0.4c-27.9-7.8-52.2-27.3-66.3-52.7
		c-10.9-19.2-15.6-41.9-13.7-63.9C13.3,89.1,23.3,66,39.2,48.2C57.1,28,82.6,14.7,109.5,11.7 M114.4,33.4c-23.2,2-45.2,14-59.9,32.1
		c-12.1,14.7-19.4,33.4-20,52.5c-0.4,13.6,1.9,27.4,7.6,39.8c8.7,19.9,25.1,36.2,44.9,45c15,6.5,31.8,9.2,48,6.7
		c18.8-2.3,36.6-11.2,50-24.5c14.6-14,23.9-33.2,26.4-53.3c0.4-9.6,0.7-19.3-1.6-28.6c-4.8-22.7-18.7-43.2-38.2-55.8
		C154.9,36.3,134.3,31.2,114.4,33.4z"/>
	<path d="M55.6,76.5C69,55.4,93.1,41.7,118,40.4c-6.8,12.1-13.8,24-20.7,36.1C83.4,76.6,69.5,76.6,55.6,76.5z"/>
	<path d="M128.1,40.5c25,1.1,49,15,62.6,36c-14,0.3-28,0-41.9,0.1C141.9,64.6,134.8,52.6,128.1,40.5z"/>
	<path d="M106.4,76.5c5.4-9.7,11-19.3,16.6-28.9c5.7,9.5,11.3,19.2,16.7,28.9C128.6,76.6,117.5,76.6,106.4,76.5z"/>
	<path d="M58,84.4c11.5-0.2,23-0.1,34.5,0c-5.3,10.2-11.3,19.9-17,29.8C69.1,104.6,63.8,94.3,58,84.4z"/>
	<path d="M101.6,84.3c0.9,0,1.8,0,2.7,0.1c0,2.9,0,5.9,0,8.8c4,0,8,0,12.1,0c0-3,0-5.9,0-8.9c4.6,0,9.3-0.1,13.9,0.1
		c0,19-0.1,38,0,57.1c4,0,8.1,0,12.1-0.1c0.1-19.1-0.1-38.2,0.1-57.4c0.5,0.1,1.5,0.3,2,0.4c6.9,11.8,13.7,23.7,20.6,35.5
		c1.8,2.4-0.9,4.8-1.9,6.9c-6.2,10.5-12.1,21.1-18.3,31.6c-0.6,0-1.8,0.1-2.4,0.2c-0.4-2.6,0.9-6-0.7-8.2c-3.9-0.3-7.8,0-11.7-0.1
		c-0.4,2.7-0.4,5.5-0.3,8.2c-4.4,0-8.9,0-13.3,0c0-19.1,0-38.1,0-57.2c-4-0.1-8.1-0.1-12.1,0c0.1,17.2,0,34.3,0,51.5
		c0,1.9-0.1,3.8-0.3,5.7c-1.1,0-2.2-0.1-3.3-0.1c-6.4-11.3-12.9-22.5-19.4-33.8c-0.8-1.2-1.4-2.8-0.5-4.1
		C87.7,108.6,94.8,96.6,101.6,84.3z"/>
	<path d="M153.2,84.4c11.4-0.1,22.8-0.1,34.3,0c-4.1,7.8-8.8,15.3-13.1,23c-1.2,2.2-2.6,4.3-4.2,6.3
		C164.5,103.9,159.1,94,153.2,84.4z"/>
	<path d="M175.1,122c6.8-12.2,13.8-24.4,21-36.4c11.2,22.4,11.5,50.2-0.1,72.6C188.9,146.2,182,134.1,175.1,122z"/>
	<path d="M50.1,157.9c-10.8-22.2-11.6-49.5-0.2-71.6c7.1,11.8,13.9,23.8,20.7,35.8c-3.6,7.9-8.6,15.1-12.7,22.7
		C55.3,149.2,53,153.7,50.1,157.9z"/>
	<path d="M170.4,130c6.1,9.2,11.2,19,16.8,28.6c-11.1,0.1-22.2,0.1-33.2,0C159.3,149,164.8,139.5,170.4,130z"/>
	<path d="M59,158.6c5.3-9.5,10.8-18.9,16.2-28.2c5.9,9.2,10.9,18.9,16.6,28.3C80.9,158.7,69.9,158.7,59,158.6z"/>
	<path d="M105.6,166.5c11.5,0,23-0.1,34.5,0.1c-5.5,10.2-11.6,20.1-17.3,30.3C117,186.8,110.9,176.9,105.6,166.5z"/>
	<path d="M55.3,166.6c13.6-0.2,27.3,0,40.9-0.1c7,12.1,14,24.1,20.8,36.3c-10.9-0.1-21.6-3.8-31.3-8.6
		C73.6,187.6,62.7,178.4,55.3,166.6z"/>
	<path d="M128.4,202.8c6.9-12.1,14-24,20.8-36.2c14-0.1,27.9-0.2,41.9,0.1c-11.1,17.3-29.4,29.7-49.3,34.4
		C137.3,202.3,132.9,202.7,128.4,202.8z"/>
</g>
</svg>
